X:2829
T:Chanson des scieurs de long
R:Chanson
O:France
B:Le livre des Chansons (Henri Davenson) n°99
Z:<anamnese@caramail.com> -- http://anamnese.fr.st
M:3/4
L:1/4
Q:1/2=100
K:Bb
FBc | d2e | dBd | c2d | cBd | cBG | F2 z | 
FBc | d2e | dBd | c3  | BAc | B2z | 
FBc | d2e | c2z | FAB | c2F | B2z ||
W:N'y a rien de si drôle que les scieurs en long
W:Niouli nioula, Ridouti la loii la.
W:N'y a rien de si drôle que les scieurs en long
W:que les scieurs en long (bis)


